apps/teka/src/routes/apps/calcular-ip-cidr/i.svg

<!--
asi:Redes Locales
title:Calculadora de IPs con CIDR
body:Escribes una IP con CIDR y recibes toda la información de esa IP.
-->
<svg
    width="25"
    height="25"
    viewBox="0 0 47 15"
    xmlns="http://www.w3.org/2000/svg"
>
    <path
        d="M6.49148 0.19894V14.7444H3.41619V3.11797H3.33097L0 5.20604V2.47877L3.60085 0.19894H6.49148Z"
        fill="currentColor"
    />
    <path
        d="M13.6113 7.63731e-05C14.3594 7.63731e-05 15.0791 0.12555 15.7704 0.376496C16.4664 0.627444 17.0867 1.02754 17.6312 1.57678C18.1804 2.12602 18.6137 2.85519 18.9309 3.76428C19.2529 4.66864 19.4162 5.77896 19.421 7.09525C19.421 8.33104 19.2813 9.43426 19.0019 10.4049C18.7273 11.3708 18.3319 12.1923 17.8158 12.8694C17.2997 13.5465 16.6771 14.0626 15.9479 14.4177C15.2188 14.7681 14.4044 14.9433 13.5048 14.9433C12.5341 14.9433 11.6771 14.7562 10.9337 14.3822C10.1904 14.0034 9.59141 13.4897 9.13686 12.841C8.68705 12.1876 8.4148 11.4537 8.3201 10.6393H11.3528C11.4711 11.1696 11.7197 11.5815 12.0985 11.8751C12.4773 12.1639 12.946 12.3083 13.5048 12.3083C14.4517 12.3083 15.1714 11.8964 15.6638 11.0725C16.1563 10.2439 16.4049 9.10993 16.4096 7.67053H16.3102C16.0924 8.09667 15.7988 8.46362 15.4295 8.77138C15.0602 9.07441 14.6364 9.30879 14.1582 9.47451C13.6847 9.64023 13.1804 9.72309 12.6454 9.72309C11.7884 9.72309 11.0237 9.52186 10.3513 9.1194C9.679 8.71693 9.1487 8.16296 8.76044 7.45746C8.37218 6.75197 8.17805 5.94705 8.17805 5.04269C8.17332 4.06731 8.39822 3.19847 8.85277 2.43616C9.30732 1.67385 9.94178 1.07725 10.7562 0.646384C11.5753 0.210777 12.527 -0.00465862 13.6113 7.63731e-05ZM13.6326 2.41485C13.1544 2.41485 12.7282 2.52849 12.3542 2.75576C11.9849 2.98303 11.6913 3.28843 11.4735 3.67195C11.2604 4.05547 11.1563 4.48398 11.161 4.95746C11.161 5.43568 11.2652 5.86655 11.4735 6.25008C11.6866 6.62886 11.9754 6.93189 12.34 7.15917C12.7093 7.38171 13.1307 7.49297 13.6042 7.49297C13.9593 7.49297 14.2884 7.42669 14.5914 7.29411C14.8944 7.16153 15.1572 6.97924 15.3798 6.74724C15.607 6.51049 15.7846 6.23824 15.9124 5.93047C16.0403 5.62271 16.1042 5.296 16.1042 4.95036C16.0995 4.49108 15.9906 4.06968 15.7775 3.68616C15.5644 3.30263 15.2709 2.99487 14.8968 2.76286C14.5228 2.53085 14.1013 2.41485 13.6326 2.41485Z"
        fill="currentColor"
    />
    <path
        d="M19.9516 14.7444V12.5285L25.1292 7.73445C25.5695 7.30832 25.9388 6.92479 26.2371 6.58388C26.5402 6.24297 26.7698 5.90917 26.9261 5.58246C27.0823 5.25102 27.1604 4.89354 27.1604 4.51002C27.1604 4.08388 27.0634 3.71693 26.8692 3.40917C26.6751 3.09667 26.41 2.85756 26.0738 2.69184C25.7376 2.52138 25.3565 2.43616 24.9303 2.43616C24.4853 2.43616 24.097 2.52612 23.7656 2.70604C23.4341 2.88597 23.1784 3.14402 22.9985 3.48019C22.8186 3.81636 22.7286 4.21646 22.7286 4.68047H19.8096C19.8096 3.72877 20.025 2.90254 20.4559 2.20178C20.8868 1.50102 21.4905 0.958883 22.267 0.57536C23.0435 0.191838 23.9384 7.63731e-05 24.9516 7.63731e-05C25.9933 7.63731e-05 26.9 0.184736 27.6718 0.554054C28.4483 0.918637 29.052 1.42527 29.4829 2.07394C29.9138 2.72261 30.1292 3.46599 30.1292 4.30405C30.1292 4.8533 30.0203 5.39544 29.8025 5.93047C29.5894 6.46551 29.2083 7.05974 28.659 7.71315C28.1098 8.36182 27.3356 9.1407 26.3366 10.0498L24.213 12.1308V12.2302H30.321V14.7444H19.9516Z"
        fill="currentColor"
    />
    <path
        d="M39.7277 14.6308L38.08 12.9972L43.6055 7.47167L38.08 1.9532L39.7277 0.312576L46.8868 7.47167L39.7277 14.6308ZM32.2703 10.5398V8.22451H44.5928L42.2632 10.5398H32.2703ZM32.2703 6.71883V4.40349H42.2632L44.5928 6.71883H32.2703Z"
        fill="currentColor"
    />
</svg>

<!--
asi:Redes Locales
title:Calculadora de IPs con CIDR
body:Escribes una IP con CIDR y recibes toda la información de esa IP.
-->
<svg xmlns="http://www.w3.org/2000/svg" width="25" height="25" viewBox="0 0 47 15"><path fill="currentColor" d="M6.491.199v14.545H3.416V3.118h-.085L0 5.206V2.479L3.6.199zM13.611 0q1.122 0 2.16.376 1.043.377 1.86 1.2.825.826 1.3 2.188.483 1.357.49 3.331 0 1.855-.42 3.31-.412 1.449-1.185 2.464a5.2 5.2 0 0 1-1.868 1.549q-1.095.525-2.443.525-1.456 0-2.571-.56a4.8 4.8 0 0 1-1.797-1.542 4.8 4.8 0 0 1-.817-2.202h3.033q.178.796.745 1.236.57.433 1.407.433 1.42 0 2.159-1.235.737-1.244.746-3.402h-.1a3.5 3.5 0 0 1-.88 1.1q-.555.455-1.272.704a4.6 4.6 0 0 1-1.513.248q-1.285 0-2.294-.604a4.33 4.33 0 0 1-1.59-1.662Q8.177 6.4 8.177 5.043q-.008-1.464.675-2.607a4.75 4.75 0 0 1 1.903-1.79Q11.985-.006 13.61 0m.022 2.415q-.718 0-1.279.34-.555.341-.88.917a2.55 2.55 0 0 0-.313 1.285q0 .718.313 1.293.319.568.866.91.554.333 1.264.333a2.44 2.44 0 0 0 1.776-.746 2.6 2.6 0 0 0 .532-.817q.192-.46.192-.98a2.6 2.6 0 0 0-.326-1.264 2.5 2.5 0 0 0-.881-.923 2.35 2.35 0 0 0-1.264-.348m6.32 12.329v-2.216l5.177-4.794q.66-.64 1.108-1.15a4.4 4.4 0 0 0 .69-1.002q.233-.496.233-1.072 0-.64-.29-1.1a1.9 1.9 0 0 0-.796-.718 2.5 2.5 0 0 0-1.144-.256q-.668 0-1.164.27a1.86 1.86 0 0 0-.767.774q-.27.504-.27 1.2h-2.92q0-1.426.647-2.478A4.3 4.3 0 0 1 22.267.575Q23.432 0 24.952 0q1.562 0 2.72.554 1.165.547 1.81 1.52.648.973.647 2.23a4.3 4.3 0 0 1-.327 1.626q-.32.804-1.143 1.783-.824.974-2.322 2.337l-2.124 2.08v.1h6.108v2.514zm19.776-.114-1.648-1.633 5.526-5.525-5.526-5.519 1.648-1.64 7.159 7.159zm-7.458-4.09V8.225h12.323l-2.33 2.315zm0-3.821V4.403h9.993l2.33 2.316z"/></svg>
